X:53
T:Wm Davenport's Quickstep
S:American Veteran Fifer #53
C:To Wm. Davenport Co.K.129th O.V.I.
M:2/4
L:1/16
Q:1/8=180
K:D 
%%MIDI program 72
%%MIDI transpose 8
%%MIDI ratio 3 1
|: A2 | d2d2 c2>A2 | BdGB AFAe | g2g2 f2fe | fage bgec |
dedd czcA | BdGB AFAe | gaga fbge | B2c2d2 :|
|: z2 | a2a2 f2af | gbge cAce | g2g2 e2ge | fafd cABc |
dedd czcA | BdGB AFAe | gaga fbge | A2c2d2 :|



